public/img/logo/OnDial.svg

<svg width="363" height="94" viewBox="0 0 363 94" fill="none" xmlns="http://www.w3.org/2000/svg">
<path d="M45.025 93.2C35.665 93.2 27.585 91.4 20.785 87.8C14.065 84.12 8.945 79.04 5.425 72.56C1.905 66 0.145 58.48 0.145 50C0.145 41.52 1.905 34.04 5.425 27.56C8.945 21 14.065 15.92 20.785 12.32C27.585 8.64 35.665 6.8 45.025 6.8C54.385 6.8 62.425 8.64 69.145 12.32C75.945 15.92 81.105 21 84.625 27.56C88.145 34.04 89.905 41.52 89.905 50C89.905 58.48 88.145 66 84.625 72.56C81.105 79.04 75.945 84.12 69.145 87.8C62.425 91.4 54.385 93.2 45.025 93.2ZM45.025 80.6C54.145 80.6 61.225 77.88 66.265 72.44C71.305 66.92 73.825 59.44 73.825 50C73.825 40.48 71.185 33 65.905 27.56C60.705 22.12 53.345 19.4 43.825 19.4C35.105 19.4 28.305 22.2 23.425 27.8C18.625 33.32 16.225 40.72 16.225 50C16.225 59.44 18.745 66.92 23.785 72.44C28.825 77.88 35.905 80.6 45.025 80.6ZM103.926 93.2C101.446 93.2 99.5262 92.56 98.1662 91.28C96.8062 90 96.1262 88.24 96.1262 86V39.2C96.1262 36.88 96.7662 35.12 98.0462 33.92C99.4062 32.64 101.286 32 103.686 32C106.086 32 107.966 32.64 109.326 33.92C110.686 35.2 111.366 36.96 111.366 39.2V42.68C117.046 35.56 124.806 32 134.646 32C142.326 32 148.366 34.44 152.766 39.32C157.246 44.12 159.486 50.68 159.486 59V86C159.486 88.24 158.766 90 157.326 91.28C155.886 92.56 153.966 93.2 151.566 93.2C149.086 93.2 147.166 92.56 145.806 91.28C144.446 90 143.766 88.24 143.766 86V59C143.766 54.44 142.646 50.88 140.406 48.32C138.166 45.76 135.046 44.48 131.046 44.48C124.966 44.48 120.246 46.28 116.886 49.88C113.526 53.4 111.846 58.36 111.846 64.76V86C111.846 88.24 111.126 90 109.686 91.28C108.246 92.56 106.326 93.2 103.926 93.2ZM185.554 92C179.474 92 174.754 90.4 171.394 87.2C168.034 84 166.354 79.52 166.354 73.76V25.76C166.354 20.16 167.954 15.8 171.154 12.68C174.434 9.56 178.954 7.99999 184.714 7.99999H201.514C210.714 7.99999 218.674 9.67999 225.394 13.04C232.114 16.4 237.234 21.24 240.754 27.56C244.354 33.88 246.154 41.4 246.154 50.12C246.154 58.84 244.354 66.36 240.754 72.68C237.234 78.92 232.114 83.72 225.394 87.08C218.754 90.36 210.794 92 201.514 92H185.554ZM200.314 79.64C210.314 79.64 217.754 77.24 222.634 72.44C227.514 67.56 229.954 60.12 229.954 50.12C229.954 40.12 227.474 32.68 222.514 27.8C217.634 22.84 210.234 20.36 200.314 20.36H187.474C185.874 20.36 184.594 20.88 183.634 21.92C182.754 22.96 182.314 24.4 182.314 26.24V73.76C182.314 75.6 182.754 77.04 183.634 78.08C184.594 79.12 185.874 79.64 187.474 79.64H200.314ZM262.187 24.56C259.227 24.56 256.827 23.76 254.987 22.16C253.227 20.48 252.347 18.32 252.347 15.68C252.347 13.04 253.227 10.92 254.987 9.32C256.827 7.64 259.227 6.8 262.187 6.8C265.147 6.8 267.547 7.64 269.387 9.32C271.307 10.92 272.267 13.04 272.267 15.68C272.267 18.32 271.307 20.48 269.387 22.16C267.547 23.76 265.147 24.56 262.187 24.56ZM262.307 93.2C259.827 93.2 257.907 92.56 256.547 91.28C255.187 90 254.507 88.24 254.507 86V39.2C254.507 36.96 255.187 35.2 256.547 33.92C257.907 32.64 259.827 32 262.307 32C264.707 32 266.627 32.64 268.067 33.92C269.507 35.2 270.227 36.96 270.227 39.2V86C270.227 88.24 269.507 90 268.067 91.28C266.627 92.56 264.707 93.2 262.307 93.2ZM302.484 93.2C297.524 93.2 293.124 92.36 289.284 90.68C285.524 89 282.564 86.68 280.404 83.72C278.324 80.68 277.284 77.2 277.284 73.28C277.284 67.36 279.724 62.64 284.604 59.12C289.564 55.6 296.244 53.84 304.644 53.84C311.924 53.84 317.764 55.4 322.164 58.52V55.64C322.164 51.88 321.004 49 318.684 47C316.364 45 313.004 44 308.604 44C302.044 44 296.404 45.4 291.684 48.2C289.684 49.32 287.964 49.88 286.524 49.88C284.764 49.88 283.204 49.08 281.844 47.48C280.964 46.36 280.524 45.2 280.524 44C280.524 42 281.564 40.24 283.644 38.72C286.524 36.64 290.164 35 294.564 33.8C298.964 32.6 303.604 32 308.484 32C317.764 32 325.044 34.12 330.324 38.36C335.684 42.52 338.364 48.28 338.364 55.64V86.48C338.364 88.56 337.644 90.2 336.204 91.4C334.844 92.6 332.964 93.2 330.564 93.2C328.084 93.2 326.164 92.64 324.804 91.52C323.444 90.4 322.764 88.8 322.764 86.72V85.4C318.204 90.6 311.444 93.2 302.484 93.2ZM306.204 82.16C311.244 82.16 315.164 81.4 317.964 79.88C320.844 78.28 322.284 76.08 322.284 73.28C322.284 70.64 320.844 68.52 317.964 66.92C315.084 65.32 311.244 64.52 306.444 64.52C302.124 64.52 298.764 65.28 296.364 66.8C294.044 68.32 292.884 70.48 292.884 73.28C292.884 76.08 294.044 78.28 296.364 79.88C298.684 81.4 301.964 82.16 306.204 82.16ZM354.197 93.2C351.717 93.2 349.797 92.56 348.437 91.28C347.077 90 346.397 88.24 346.397 86V8.11999C346.397 5.87999 347.077 4.11999 348.437 2.84C349.797 1.55999 351.717 0.919992 354.197 0.919992C356.597 0.919992 358.517 1.55999 359.957 2.84C361.397 4.11999 362.117 5.87999 362.117 8.11999V86C362.117 88.24 361.397 90 359.957 91.28C358.517 92.56 356.597 93.2 354.197 93.2Z" fill="black"/>
</svg>

<svg xmlns="http://www.w3.org/2000/svg" width="363" height="94" fill="none"><path fill="#000" d="M45.025 93.2q-14.04 0-24.24-5.4-10.08-5.52-15.36-15.24Q.145 62.72.145 50t5.28-22.44q5.28-9.84 15.36-15.24 10.2-5.52 24.24-5.52t24.12 5.52q10.2 5.4 15.48 15.24 5.28 9.72 5.28 22.44t-5.28 22.56q-5.28 9.72-15.48 15.24-10.08 5.4-24.12 5.4m0-12.6q13.68 0 21.24-8.16 7.56-8.28 7.56-22.44 0-14.28-7.92-22.44-7.8-8.16-22.08-8.16-13.08 0-20.4 8.4-7.2 8.28-7.2 22.2 0 14.16 7.56 22.44 7.56 8.16 21.24 8.16m58.901 12.6q-3.72 0-5.76-1.92T96.126 86V39.2q0-3.48 1.92-5.28 2.04-1.92 5.64-1.92t5.64 1.92 2.04 5.28v3.48Q119.886 32 134.646 32q11.52 0 18.12 7.32 6.72 7.2 6.72 19.68v27q0 3.36-2.16 5.28t-5.76 1.92q-3.72 0-5.76-1.92t-2.04-5.28V59q0-6.84-3.36-10.68t-9.36-3.84q-9.12 0-14.16 5.4-5.04 5.28-5.04 14.88V86q0 3.36-2.16 5.28t-5.76 1.92m81.628-1.2q-9.12 0-14.16-4.8t-5.04-13.44v-48q0-8.4 4.8-13.08Q176.074 8 184.714 8h16.8q13.8 0 23.88 5.04t15.36 14.52q5.4 9.48 5.4 22.56t-5.4 22.56q-5.28 9.36-15.36 14.4-9.96 4.92-23.88 4.92zm14.76-12.36q15 0 22.32-7.2 7.32-7.32 7.32-22.32t-7.44-22.32q-7.32-7.44-22.2-7.44h-12.84q-2.4 0-3.84 1.56-1.32 1.56-1.32 4.32v47.52q0 2.76 1.32 4.32 1.44 1.56 3.84 1.56zm61.873-55.08q-4.44 0-7.2-2.4-2.64-2.52-2.64-6.48t2.64-6.36q2.76-2.52 7.2-2.52t7.2 2.52q2.88 2.4 2.88 6.36t-2.88 6.48q-2.76 2.4-7.2 2.4m.12 68.64q-3.72 0-5.76-1.92t-2.04-5.28V39.2q0-3.36 2.04-5.28t5.76-1.92q3.6 0 5.76 1.92t2.16 5.28V86q0 3.36-2.16 5.28t-5.76 1.92m40.177 0q-7.44 0-13.2-2.52-5.64-2.52-8.88-6.96-3.12-4.56-3.12-10.44 0-8.88 7.32-14.16 7.44-5.28 20.04-5.28 10.92 0 17.52 4.68v-2.88q0-5.64-3.48-8.64t-10.08-3q-9.84 0-16.92 4.2-3 1.68-5.16 1.68-2.64 0-4.68-2.4-1.32-1.68-1.32-3.48 0-3 3.12-5.28 4.32-3.12 10.92-4.92t13.92-1.8q13.92 0 21.84 6.36 8.04 6.24 8.04 17.28v30.84q0 3.12-2.16 4.92-2.04 1.8-5.64 1.8-3.72 0-5.76-1.68t-2.04-4.8V85.4q-6.84 7.8-20.28 7.8m3.72-11.04q7.56 0 11.76-2.28 4.32-2.4 4.32-6.6 0-3.96-4.32-6.36t-11.52-2.4q-6.48 0-10.08 2.28-3.48 2.28-3.48 6.48t3.48 6.6q3.48 2.28 9.84 2.28m47.993 11.04q-3.72 0-5.76-1.92t-2.04-5.28V8.12q0-3.36 2.04-5.28t5.76-1.92q3.6 0 5.76 1.92t2.16 5.28V86q0 3.36-2.16 5.28t-5.76 1.92"/></svg>
